X: 10112
T: MARCH IN THE GOD OF LOVE
C:
%R: march
B: Elias Howe "The Musician's Companion" Part 1 1842 p.11 #2
S: http://imslp.org/wiki/The_Musician's_Companion_(Howe,_Elias)
Z: 2015 John Chambers <jc:trillian.mit.edu>
M: C
L: 1/8
K: G
% - - - - - - - - - - - - - - - - - - - - - - - - -
|:\
B3c d2z2 | A3B c2z2 | B2d>B A2c>A | G2G>A GFED |\
B3c d3d | e3f g4 | fd ag f2e2 | d2d>d d4 :|
|:\
A2BA dcBA | G3A B4 | d2d2 gdcB | d3c/B/ A3B |\
c3d e3f | g3a b4 | dg fedc BA | G2G>G G4 :|
% - - - - - - - - - - - - - - - - - - - - - - - - -


